src/assets/svg/blockstack.svg

<svg fill="none" viewBox="0 0 256 256" xmlns="http://www.w3.org/2000/svg"><path d="m0 0h256v256h-256z" fill="none"/><path d="m256 175.266s.062 26.682-2.843 38.247c-2.905 11.564-8.239 19.627-14.15 25.537-5.938 5.936-13.803 11.334-25.792 14.146-11.989 2.813-38.003 2.763-38.003 2.763l-94.5059.041s-26.6863.062-38.2526-2.842c-11.5666-2.905-19.6309-8.239-25.5418-14.149-5.9374-5.936-11.33572-13.8-14.14841-25.787-2.8126882-11.987-2.76318486-37.997-2.76318486-37.997v-94.491s-.06225414-26.6818 2.84294486-38.2465c2.90494-11.5647 8.23935-19.6275 14.15045-25.5374 5.9374-5.9365 13.8027-11.33426 25.7915-14.1465 11.9891-2.8122453 38.0026-2.7627498 38.0026-2.7627498l94.5064-.04074629s26.686-.06199431 38.253 2.84248609c11.566 2.90449 19.63 8.23801 25.541 14.14821 5.937 5.9365 11.336 13.8005 14.149 25.7874 2.812 11.9871 2.763 37.9965 2.763 37.9965z" fill="#270f34"/><path d="m58.8213 61.3168h139.035v133.052h-139.035z" fill="none"/><path d="m58.8213 144.488h55.5902v49.8809h-55.5902z" fill="none"/><g clip-rule="evenodd" fill-rule="evenodd"><path d="m97.655 147.661c5.894 3.674 9.823 10.182 9.823 17.621 0 11.484-9.3397 20.794-20.8596 20.794-1.4063 0-2.7764-.145-4.1028-.407 3.2052 1.999 6.9773 3.173 11.0366 3.173 11.5238 0 20.8588-9.311 20.8588-20.794 0-10.085-7.202-18.487-16.756-20.387z" fill="#2c96ff"/><path d="m82.5151 185.669c.0073 0 .0182 0 .0255.003-9.5684-1.889-16.782-10.298-16.782-20.39 0-3.111.705-6.051 1.9297-8.704-5.3565 3.765-8.867 9.969-8.867 16.997 0 11.487 9.3431 20.794 20.8629 20.794 5.4656 0 10.426-2.115 14.1473-5.542-.0945 0-.1854.014-.2798.014-4.0592 0-7.8314-1.174-11.0366-3.172z" fill="#e91e63"/><path d="m86.6183 186.208c11.5202 0 20.8597-9.34 20.8597-20.86s-9.3395-20.86-20.8597-20.86-20.86 9.34-20.86 20.86 9.3398 20.86 20.86 20.86z" fill="#fefefe"/></g><path d="m58.8213 61.3168h55.5902v49.8778h-55.5902z" fill="none"/><path clip-rule="evenodd" d="m97.655 64.4864c5.894 3.674 9.823 10.1825 9.823 17.6214 0 11.4835-9.3397 20.7942-20.8596 20.7942-1.4063 0-2.7764-.142-4.1028-.407 3.2052 1.998 6.9773 3.172 11.0366 3.172 11.5238 0 20.8588-9.3102 20.8588-20.7937 0-10.0845-7.202-18.4863-16.756-20.3869z" fill="#2c96ff" fill-rule="evenodd"/><path clip-rule="evenodd" d="m82.5151 102.495c.0073 0 .0182 0 .0255.003-9.5684-1.889-16.782-10.2985-16.782-20.3902 0-3.1107.705-6.0506 1.9297-8.6998-5.3565 3.7612-8.867 9.9645-8.867 16.9927 0 11.4873 9.3431 20.7943 20.8629 20.7943 5.4656 0 10.426-2.112 14.1473-5.542-.0945 0-.1854.014-.2798.014-4.0592 0-7.8314-1.174-11.0366-3.172z" fill="#e91e63" fill-rule="evenodd"/><path clip-rule="evenodd" d="m86.6183 103.037c11.5202 0 20.8597-9.341 20.8597-20.8621 0-11.521-9.3395-20.8581-20.8597-20.8581s-20.86 9.3371-20.86 20.8581c0 11.5211 9.3398 20.8621 20.86 20.8621z" fill="#fefefe" fill-rule="evenodd"/><path d="m142.264 61.3168h55.5928v49.8778h-55.5928z" fill="none"/><path clip-rule="evenodd" d="m181.096 64.4864c5.895 3.674 9.827 10.1825 9.827 17.6214 0 11.4835-9.343 20.7942-20.863 20.7942-1.403 0-2.777-.142-4.103-.407 3.205 1.998 6.977 3.172 11.037 3.172 11.523 0 20.863-9.3102 20.863-20.7937 0-10.0845-7.207-18.4863-16.761-20.3869z" fill="#2c96ff" fill-rule="evenodd"/><path clip-rule="evenodd" d="m165.958 102.495c.007 0 .018 0 .029.003-9.569-1.889-16.786-10.2985-16.786-20.3902 0-3.1107.705-6.0506 1.933-8.6998-5.36 3.7612-8.87 9.9645-8.87 16.9927 0 11.4873 9.343 20.7943 20.863 20.7943 5.469 0 10.426-2.112 14.147-5.542-.095 0-.185.014-.28.014-4.059 0-7.831-1.174-11.036-3.172z" fill="#e91e63" fill-rule="evenodd"/><path clip-rule="evenodd" d="m170.058 103.037c11.52 0 20.862-9.341 20.862-20.8621 0-11.521-9.342-20.8581-20.862-20.8581-11.519 0-20.858 9.3371-20.858 20.8581 0 11.5211 9.339 20.8621 20.858 20.8621z" fill="#fefefe" fill-rule="evenodd"/><path d="m142.264 144.488h55.5928v49.8809h-55.5928z" fill="none"/><path clip-rule="evenodd" d="m181.096 147.661c5.895 3.674 9.827 10.182 9.827 17.621 0 11.484-9.343 20.794-20.863 20.794-1.403 0-2.777-.145-4.103-.407 3.205 1.999 6.977 3.173 11.037 3.173 11.523 0 20.863-9.311 20.863-20.794 0-10.085-7.207-18.487-16.761-20.387z" fill="#2c96ff" fill-rule="evenodd"/><path clip-rule="evenodd" d="m165.958 185.669c.007 0 .018 0 .029.003-9.569-1.889-16.786-10.298-16.786-20.39 0-3.111.705-6.051 1.933-8.704-5.36 3.765-8.87 9.969-8.87 16.997 0 11.487 9.343 20.794 20.863 20.794 5.469 0 10.426-2.115 14.147-5.542-.095 0-.185.014-.28.014-4.059 0-7.831-1.174-11.036-3.172z" fill="#e91e63" fill-rule="evenodd"/><path clip-rule="evenodd" d="m170.058 186.208c11.52 0 20.862-9.34 20.862-20.86s-9.342-20.86-20.862-20.86c-11.519 0-20.858 9.34-20.858 20.86s9.339 20.86 20.858 20.86z" fill="#fefefe" fill-rule="evenodd"/></svg>

<svg viewBox="0 0 256 256" fill="none" xmlns="http://www.w3.org/2000/svg"><rect width="256" height="256" fill="black" fill-opacity="0"/><path class="logo-bg" d="M256 175.266C256 175.266 256.062 201.948 253.157 213.513C250.252 225.077 244.918 233.14 239.007 239.05C233.069 244.986 225.204 250.384 213.215 253.196C201.226 256.009 175.212 255.959 175.212 255.959L80.7061 256C80.7061 256 54.0198 256.062 42.4535 253.158C30.8869 250.253 22.8226 244.919 16.9117 239.009C10.9743 233.073 5.57598 225.209 2.76329 213.222C-0.0493982 201.235 0.000105139 175.225 0.000105139 175.225V80.734C0.000105139 80.734 -0.062149 54.0522 2.84305 42.4875C5.74799 30.9228 11.0824 22.86 16.9935 16.9501C22.9309 11.0136 30.7962 5.61584 42.785 2.8036C54.7741 -0.0086453 80.7876 0.0408502 80.7876 0.0408502L175.294 0.000103912C175.294 0.000103912 201.98 -0.0618904 213.547 2.84259C225.113 5.74708 233.177 11.0806 239.088 16.9908C245.025 22.9273 250.424 30.7913 253.237 42.7782C256.049 54.7653 256 80.7747 256 80.7747V175.266Z" fill="#270F34"/><rect width="139.035" height="133.052" fill="black" fill-opacity="0" transform="translate(58.8213 61.3168)"/><rect width="55.5902" height="49.8809" fill="black" fill-opacity="0" transform="translate(58.8213 144.488)"/><path fill-rule="evenodd" clip-rule="evenodd" d="M97.655 147.661C103.549 151.335 107.478 157.843 107.478 165.282C107.478 176.766 98.1383 186.076 86.6184 186.076C85.2121 186.076 83.842 185.931 82.5156 185.669C85.7208 187.668 89.4929 188.842 93.5522 188.842C105.076 188.842 114.411 179.531 114.411 168.048C114.411 157.963 107.209 149.561 97.655 147.661Z" fill="#2C96FF"/><path fill-rule="evenodd" clip-rule="evenodd" d="M82.5151 185.669C82.5224 185.669 82.5333 185.669 82.5406 185.672C72.9722 183.783 65.7586 175.374 65.7586 165.282C65.7586 162.171 66.4636 159.231 67.6883 156.578C62.3318 160.343 58.8213 166.547 58.8213 173.575C58.8213 185.062 68.1644 194.369 79.6842 194.369C85.1498 194.369 90.1102 192.254 93.8315 188.827C93.737 188.827 93.6461 188.841 93.5517 188.841C89.4925 188.841 85.7203 187.667 82.5151 185.669Z" fill="#E91E63"/><path fill-rule="evenodd" clip-rule="evenodd" d="M86.6183 186.208C98.1385 186.208 107.478 176.868 107.478 165.348C107.478 153.828 98.1385 144.488 86.6183 144.488C75.0981 144.488 65.7583 153.828 65.7583 165.348C65.7583 176.868 75.0981 186.208 86.6183 186.208Z" fill="#FEFEFE"/><rect width="55.5902" height="49.8778" fill="black" fill-opacity="0" transform="translate(58.8213 61.3168)"/><path fill-rule="evenodd" clip-rule="evenodd" d="M97.655 64.4864C103.549 68.1604 107.478 74.6689 107.478 82.1078C107.478 93.5913 98.1383 102.902 86.6184 102.902C85.2121 102.902 83.842 102.76 82.5156 102.495C85.7208 104.493 89.4929 105.667 93.5522 105.667C105.076 105.667 114.411 96.3568 114.411 84.8733C114.411 74.7888 107.209 66.387 97.655 64.4864Z" fill="#2C96FF"/><path fill-rule="evenodd" clip-rule="evenodd" d="M82.5151 102.495C82.5224 102.495 82.5333 102.495 82.5406 102.498C72.9722 100.609 65.7586 92.1995 65.7586 82.1078C65.7586 78.9971 66.4636 76.0572 67.6883 73.408C62.3318 77.1692 58.8213 83.3725 58.8213 90.4007C58.8213 101.888 68.1644 111.195 79.6842 111.195C85.1498 111.195 90.1102 109.083 93.8315 105.653C93.737 105.653 93.6461 105.667 93.5517 105.667C89.4925 105.667 85.7203 104.493 82.5151 102.495Z" fill="#E91E63"/><path fill-rule="evenodd" clip-rule="evenodd" d="M86.6183 103.037C98.1385 103.037 107.478 93.696 107.478 82.1749C107.478 70.6539 98.1385 61.3168 86.6183 61.3168C75.0981 61.3168 65.7583 70.6539 65.7583 82.1749C65.7583 93.696 75.0981 103.037 86.6183 103.037Z" fill="#FEFEFE"/><rect width="55.5928" height="49.8778" fill="black" fill-opacity="0" transform="translate(142.264 61.3168)"/><path fill-rule="evenodd" clip-rule="evenodd" d="M181.096 64.4864C186.991 68.1604 190.923 74.6689 190.923 82.1078C190.923 93.5913 181.58 102.902 170.06 102.902C168.657 102.902 167.283 102.76 165.957 102.495C169.162 104.493 172.934 105.667 176.994 105.667C188.517 105.667 197.857 96.3568 197.857 84.8733C197.857 74.7888 190.65 66.387 181.096 64.4864Z" fill="#2C96FF"/><path fill-rule="evenodd" clip-rule="evenodd" d="M165.958 102.495C165.965 102.495 165.976 102.495 165.987 102.498C156.418 100.609 149.201 92.1995 149.201 82.1078C149.201 78.9971 149.906 76.0572 151.134 73.408C145.774 77.1692 142.264 83.3725 142.264 90.4007C142.264 101.888 151.607 111.195 163.127 111.195C168.596 111.195 173.553 109.083 177.274 105.653C177.179 105.653 177.089 105.667 176.994 105.667C172.935 105.667 169.163 104.493 165.958 102.495Z" fill="#E91E63"/><path fill-rule="evenodd" clip-rule="evenodd" d="M170.058 103.037C181.578 103.037 190.92 93.696 190.92 82.1749C190.92 70.6539 181.578 61.3168 170.058 61.3168C158.539 61.3168 149.2 70.6539 149.2 82.1749C149.2 93.696 158.539 103.037 170.058 103.037Z" fill="#FEFEFE"/><rect width="55.5928" height="49.8809" fill="black" fill-opacity="0" transform="translate(142.264 144.488)"/><path fill-rule="evenodd" clip-rule="evenodd" d="M181.096 147.661C186.991 151.335 190.923 157.843 190.923 165.282C190.923 176.766 181.58 186.076 170.06 186.076C168.657 186.076 167.283 185.931 165.957 185.669C169.162 187.668 172.934 188.842 176.994 188.842C188.517 188.842 197.857 179.531 197.857 168.048C197.857 157.963 190.65 149.561 181.096 147.661Z" fill="#2C96FF"/><path fill-rule="evenodd" clip-rule="evenodd" d="M165.958 185.669C165.965 185.669 165.976 185.669 165.987 185.672C156.418 183.783 149.201 175.374 149.201 165.282C149.201 162.171 149.906 159.231 151.134 156.578C145.774 160.343 142.264 166.547 142.264 173.575C142.264 185.062 151.607 194.369 163.127 194.369C168.596 194.369 173.553 192.254 177.274 188.827C177.179 188.827 177.089 188.841 176.994 188.841C172.935 188.841 169.163 187.667 165.958 185.669Z" fill="#E91E63"/><path fill-rule="evenodd" clip-rule="evenodd" d="M170.058 186.208C181.578 186.208 190.92 176.868 190.92 165.348C190.92 153.828 181.578 144.488 170.058 144.488C158.539 144.488 149.2 153.828 149.2 165.348C149.2 176.868 158.539 186.208 170.058 186.208Z" fill="#FEFEFE"/></svg>
